img/duck_1.svg

<svg fill="none" height="120" viewBox="0 0 120 120" width="120" xmlns="http://www.w3.org/2000/svg" xmlns:xlink="http://www.w3.org/1999/xlink"><clipPath id="a"><path d="m0 0h120v120h-120z"/></clipPath><mask id="b" height="120" maskUnits="userSpaceOnUse" width="120" x="0" y="0"><path d="m120 0h-120v120h120z" fill="#fff"/></mask><mask id="c" height="120" maskUnits="userSpaceOnUse" width="120" x="0" y="0"><path d="m0 0h120v120h-120z" fill="#fff"/></mask><g clip-path="url(#a)"><g mask="url(#b)"><g mask="url(#c)"><path d="m92.0685 68.8633-6.8035-1.1433-53.4822-3.0066-9.6762-.5484c-1.2015 5.0924-1.8412 10.0688-1.8412 14.5702 0 22.9608 16.6414 38.6648 39.6024 38.6648 22.9609 0 39.6023-15.704 39.6023-38.6648 0-3.7484-.4438-7.8264-1.2859-12.0263z" fill="#cfc5b7"/><path d="m92.0685 68.8633-6.8035-1.1433-53.4822-3.0066-9.6762-.5484c-1.2015 5.0924-1.8412 10.0688-1.8412 14.5702 0 22.9608 16.6414 38.6648 39.6024 38.6648 22.9609 0 39.6023-15.704 39.6023-38.6648 0-3.7484-.4438-7.8264-1.2859-12.0263z" stroke="#b7ac9a" stroke-linecap="round" stroke-linejoin="round" stroke-width="2.22656"/><path d="m57.5951 92.75c-12.2813 1.0647-30.777 1.3685-30.5728-7.2444.108-32.8977 26.7479-38.9551 32.2596-38.3306 17.6764 2.0693 32.2857 10.4557 32.7801 32.8047.8072 9.3109-20.1852 11.5322-34.4669 12.7703z" fill="#ffd527"/><path d="m57.5951 92.75c-12.2813 1.0647-30.777 1.3685-30.5728-7.2444.108-32.8977 26.7479-38.9551 32.2596-38.3306 17.6764 2.0693 32.2857 10.4557 32.7801 32.8047.8072 9.3109-20.1852 11.5322-34.4669 12.7703z" stroke="#fa9016" stroke-linecap="round" stroke-linejoin="round" stroke-width="2.22656"/><path d="m39.3024 59.84c-8.7026 1.435-17.2567 1.4402-18.6505 3.0987-1.3939 1.6584 5.7654 9.8012 12.5289 10.9674" fill="#ffd527"/><path d="m39.3024 59.84c-8.7026 1.435-17.2567 1.4402-18.6505 3.0987-1.3939 1.6584 5.7654 9.8012 12.5289 10.9674" stroke="#fa9016" stroke-linecap="round" stroke-linejoin="round" stroke-width="2.22656"/><path d="m24.2846 64.9392c.8347-.0824 3.3235-.3233 6.3334-.5175" stroke="#fff" stroke-linecap="round" stroke-linejoin="round" stroke-width="1.875"/><path d="m76.0612 53.7987c13.0025-8.6369 20.6882-15.5432 23.6114-14.6737 3.5104.7156-4.1958 17.3842-13.2252 33.6097" fill="#ffd527"/><path d="m76.0612 53.7987c13.0025-8.6369 20.6882-15.5432 23.6114-14.6737 3.5104.7156-4.1958 17.3842-13.2252 33.6097" stroke="#fa9016" stroke-linecap="round" stroke-linejoin="round" stroke-width="2.22656"/><path d="m93.2074 9.44954c-9.141-6.98201-22.4592-6.26701-35.299-1.60424l.6574 8.6912 14.8201 4.4861 3.958 9.8568 11.2587-1.5618 5.7333 12.268 5.1345-2.3409 3.7296 3.3971c1.634-13.3231-.809-26.1778-9.9926-33.19226z" fill="#cec5b6"/><path d="m93.2074 9.44954c-9.141-6.98201-22.4592-6.26701-35.299-1.60424l.6574 8.6912 14.8201 4.4861 3.958 9.8568 11.2587-1.5618 5.7333 12.268 5.1345-2.3409 3.7296 3.3971c1.634-13.3231-.809-26.1778-9.9926-33.19226z" stroke="#b7ac9a" stroke-linecap="round" stroke-linejoin="round" stroke-width="2.22667"/><path d="m99.091 37.072-3.8132 1.7037-4.7016-10.7374c-.3375-.722-1.1251-1.1433-1.929-1.0317l-9.9222 1.4837-3.2782-8.546c-.2034-.5066-.6339-.8966-1.1679-1.0582l-13.9279-3.8698" opacity=".5" stroke="#eae5dc" stroke-linecap="round" stroke-linejoin="round" stroke-width="2.34386"/><path d="m88.8706 65.233c3.3927-3.9102 5.3129-8.7841 5.3551-14.317.1167-15.2727-14.0224-30.5403-31.6058-30.8276-17.5831-.2874-31.9521 14.514-32.0687 29.7867-.0482 6.3077 2.356 11.8073 6.5567 16.0574" fill="#ffd527"/><path d="m88.8706 65.233c3.3927-3.9102 5.3129-8.7841 5.3551-14.317.1167-15.2727-14.0224-30.5403-31.6058-30.8276-17.5831-.2874-31.9521 14.514-32.0687 29.7867-.0482 6.3077 2.356 11.8073 6.5567 16.0574" stroke="#fa9016" stroke-linecap="round" stroke-linejoin="round" stroke-width="2.22631"/><path d="m36.2543 45.5209c1.021-4.1446 5.372-16.3413 21.4863-18.8808" stroke="#fff" stroke-linecap="round" stroke-linejoin="round" stroke-width="1.87478"/><path d="m73.3988 54.1886c-8.4688-1.5485-6.0539-5.8161-8.7646-6.1084-3.3639-.3627-1.6339 4.8189-10.0366 4.6945-4.2386-.1371-3.6998 3.3509-.6324 4.2976 1.55 5.2527 5.5329 7.4478 9.5824 7.8133 4.0496.3655 7.747-2.5159 9.9533-6.8736 3.2879.3045 3.3957-3.324-.1021-3.8234z" fill="#ff5d1f"/><path d="m73.3988 54.1886c-8.4688-1.5485-6.0539-5.8161-8.7646-6.1084-3.3639-.3627-1.6339 4.8189-10.0366 4.6945-4.2386-.1371-3.6999 3.3509-.6324 4.2976 1.55 5.2527 5.5329 7.4478 9.5824 7.8133 4.0496.3655 7.747-2.5159 9.9533-6.8736 3.2879.3045 3.3957-3.324-.1021-3.8234z" stroke="#cf3502" stroke-linecap="round" stroke-linejoin="round" stroke-width="1.78105"/><path d="m54.4427 56.9629c5.2246.7113 11.1201 1.7101 18.993 1.0367" stroke="#7d0909" stroke-linecap="round" stroke-linejoin="round" stroke-width="1.78105"/><path d="m56.5845 57.3119c1.0626 1.4598 3.187 4.1452 6.8809 4.4626 2.5163.2163 5.2808-.8073 7.4711-3.5707-3.2486.3237-10.7088-.3457-14.352-.8919z" fill="#7d0909"/><path d="m56.5845 57.3119c1.0626 1.4598 3.187 4.1452 6.8809 4.4626 2.5163.2163 5.2808-.8073 7.4711-3.5707-3.2486.3237-10.7088-.3457-14.352-.8919z" stroke="#7d0909" stroke-linecap="round" stroke-linejoin="round" stroke-width="1.78105"/><path d="m55.9114 54.5729c1.8714-.0402 5.132-.6434 6.6297-2.9173" opacity=".33" stroke="#fff" stroke-linecap="round" stroke-linejoin="round" stroke-width="1.78105"/><path d="m54.5027 45.1741c.5113.34-1.1548 3.5339-6.5994 3.0018-3.7931-.3792-5.703-3.383-5.1245-3.6611.4201-.202 1.1707 1.6649 5.4656 2.0629 5.4517.5035 6.0257-1.5581 6.2583-1.4036z" fill="#000"/><path d="m54.5027 45.1741c.5113.34-1.1548 3.5339-6.5994 3.0018-3.7931-.3792-5.703-3.383-5.1245-3.6611.4201-.202 1.1707 1.6649 5.4656 2.0629 5.4517.5035 6.0257-1.5581 6.2583-1.4036z" stroke="#000" stroke-linecap="round" stroke-linejoin="round" stroke-width="1.76007"/><path d="m47.9026 48.0244c-.1229.1121-.8124-.0204-1.5395-.2957s-1.2168-.5898-1.0939-.7018c.1229-.1121.8122.0203 1.5393.2957.7271.2753 1.217.5897 1.0941.7018z" fill="#000"/><path d="m85.7014 48.6362c.4819.3367-1.1129 3.5385-6.2615 3.0387-3.5868-.3566-5.3767-3.3472-4.8278-3.6286.3987-.2043 1.0982 1.657 5.1597 2.0294 5.1554.4711 5.7104-1.5926 5.9296-1.4395z" fill="#000"/><path d="m85.7014 48.6362c.4819.3367-1.1129 3.5385-6.2615 3.0387-3.5868-.3566-5.3767-3.3472-4.8278-3.6286.3987-.2043 1.0982 1.657 5.1597 2.0294 5.1554.4711 5.7104-1.5926 5.9296-1.4395z" stroke="#000" stroke-linecap="round" stroke-linejoin="round" stroke-width="1.7115"/><path d="m79.4398 51.5239c-.1169.1127-.7685-.0155-1.4549-.2864s-1.148-.5822-1.031-.695c.1169-.1127.7683.0156 1.4547.2865.6864.2708 1.1482.5822 1.0312.6949z" fill="#000"/><path d="m93.2074 9.44954c-9.141-6.98201-22.4592-6.26701-35.299-1.60424l4.5607 5.7419 14.7133.8748 3.4346 11.3539 12.5735-2.6141 4.4341 13.3185 4.0274-.9182 1.548 7.0397c1.634-13.3231-.809-26.1778-9.9926-33.19226z" fill="#e0d8cb"/><path d="m93.2074 9.44954c-9.141-6.98201-22.4592-6.26701-35.299-1.60424l4.5607 5.7419 14.7133.8748 3.4346 11.3539 12.5735-2.6141 4.4341 13.3185 4.0274-.9182 1.548 7.0397c1.634-13.3231-.809-26.1778-9.9926-33.19226z" stroke="#b7ac9a" stroke-linecap="round" stroke-linejoin="round" stroke-width="2.22667"/><path d="m101.442 33.9419-2.4981.1281-3.821-12.1908c-.3375-.722-1.1249-1.1435-1.9289-1.0319l-11.0798 2.6446-3.1608-10.3401c-.2034-.5066-.6337-.8967-1.1677-1.0583l-14.128-.4767-1.9567-2.17813" stroke="#fff" stroke-linecap="round" stroke-linejoin="round" stroke-width="2.34386"/><path d="m93.5355 8.92279c-9.1833-7.0143-22.5825-6.26089-35.4771-1.53969 1.9788 3.0906 4.3041 5.9423 4.3041 5.9423l14.6728 1.1379 3.5771 11.2378 12.286-2.2045 5.0925 12.7077 3.5371-.3586s.562 3.3666 1.024 3.4085c1.736-9.6987-.034-18.5081-4.7706-26.1014-1.2155-1.5719-2.6254-2.9923-4.2459-4.23001z" fill="#fff" opacity=".33"/><path d="m88.2175 7.23845c-10.2191-4.37481-19.0487-3.02176-30.3677.32898 2.0627 2.65977 4.348 6.06967 4.348 6.06967l14.7669.8645 3.7083 11.2701 12.7089-2.757s.4712 1.2768 1.0404 3.187c.4949 1.6604 1.0638 3.7995 1.462 5.9942 2.6237-7.1627 1.5034-17.9531-7.6668-24.95745z" fill="#fff" opacity=".33"/><path d="m93.2074 9.44954c-9.141-6.98201-22.4592-6.26701-35.299-1.60424l4.5607 5.7419 14.7133.8748 3.4346 11.3539 12.5735-2.6141 4.4341 13.3185 4.0274-.9182 1.548 7.0397c1.634-13.3231-.809-26.1778-9.9926-33.19226z" stroke="#b7ac9a" stroke-linecap="round" stroke-linejoin="round" stroke-width="2.22667"/><path d="m93.9435 71.9101-8.6785-4.1901-3.4215 15.9573-8.0277-13.2826-7.3026 6.2927-3.0994-2.552-6.995 4.9857-7.0137-13.6025-9.0351 4.7773-3.9464 7.7887-4.1806 1.4486-2.3352-11.5385-7.8012-3.8297c-1.2015 5.0924-1.8412 10.0688-1.8412 14.5702 0 22.9608 16.6414 38.6648 39.6024 38.6648 22.9609 0 39.6023-15.704 39.6023-38.6648 0-3.7484-.4438-7.8264-1.2859-12.0263z" fill="#e0d8cb"/><path d="m22.1268 64.6506c-.3242 1.4139-.6047 2.8178-.8399 4.2042 1.417 18.9904 15.9206 31.7422 35.5573 31.7422 18.8915 0 33.0338-11.8013 35.3418-29.6064-2.6142-1.2906-6.5091-3.1611-6.5091-3.1611l-4.0927 15.1889-7.7264-12.5048-7.756 6.4168-2.9433-2.934-6.8408 4.5422-7.1676-13.2594-8.924 4.9209-3.695 7.8415-4.3086.975-2.5586-11.3209s-7.2129-4.4589-7.5371-3.0451z" fill="#fff" opacity=".33"/><path d="m49.5908 65.667-8.996 4.4527s-1.5575 2.2751-3.2083 7.1771c4.5805 3.6571 10.6003 5.7327 17.4552 5.7327 8.7388 0 16.1201-3.373 20.8927-9.0955-.5413-1.2166-2.1266-3.3289-2.1266-3.3289l-7.3753 6.2221-2.7168-2.797-7.1502 5.2052z" fill="#fff" opacity=".33"/><g stroke-linecap="round" stroke-linejoin="round"><path d="m93.9435 71.9101-8.6785-4.1901-3.4215 15.9573-8.0277-13.2826-7.3026 6.2927-3.0994-2.552-6.995 4.9857-7.0137-13.6025-9.0351 4.7773-3.9464 7.7887-4.1806 1.4486-2.3352-11.5385-7.8012-3.8297c-1.2015 5.0924-1.8412 10.0688-1.8412 14.5702 0 22.9608 16.6414 38.6648 39.6024 38.6648 22.9609 0 39.6023-15.704 39.6023-38.6648 0-3.7484-.4438-7.8264-1.2859-12.0263z" stroke="#b7ac9a" stroke-width="2.22656"/><path d="m98.1829 66.7088-4.2407 5.2012-8.6785-4.1902-3.4215 15.9574-8.0277-13.2826-7.3027 6.2927-3.0993-2.5521-6.995 4.9858-7.0137-13.6026-9.0351 4.7774-3.9464 7.7887-4.1806 1.4486-2.3352-11.5385-7.8012-3.8297" stroke="#b7ac9a" stroke-width="2.22656"/><path d="m23.6815 67.4185 4.2614 2.092 2.0707 10.2324c.2921 1.444 1.7901 2.299 3.182 1.8167l3.878-1.3438c.5962-.2066 1.089-.6365 1.3742-1.1994l3.5885-7.0831 6.421-3.3949 5.873 11.3907c.6793 1.3174 2.3684 1.7267 3.5754.8663l5.4103-3.8562 1.6473 1.3562c.9144.7531 2.2381.7384 3.1354-.0349l5.1743-4.4589 6.3947 10.5806c1.14 1.8863 4 1.4065 4.4623-.7486l2.7184-12.6767 5.9798 2.8874c1.0145.4899 2.2326.2193 2.9445-.6537l1.0179-1.2489" stroke="#fff" stroke-width="1.78125"/></g></g></g></g></svg>

<svg width="120" height="120" viewBox="0 0 120 120" fill="none" xmlns="http://www.w3.org/2000/svg">
<g clip-path="url(#clip0_1_122)">
<mask id="mask0_1_122" style="mask-type:luminance" maskUnits="userSpaceOnUse" x="0" y="0" width="120" height="120">
<path d="M120 0H0V120H120V0Z" fill="white"/>
</mask>
<g mask="url(#mask0_1_122)">
<mask id="mask1_1_122" style="mask-type:luminance" maskUnits="userSpaceOnUse" x="0" y="0" width="120" height="120">
<path d="M0 0H120V120H0V0Z" fill="white"/>
</mask>
<g mask="url(#mask1_1_122)">
<path d="M92.0685 68.8633L85.265 67.72L31.7828 64.7134L22.1066 64.165C20.9051 69.2574 20.2654 74.2338 20.2654 78.7352C20.2654 101.696 36.9068 117.4 59.8678 117.4C82.8287 117.4 99.4701 101.696 99.4701 78.7352C99.4701 74.9868 99.0263 70.9088 98.1842 66.7089L92.0685 68.8633Z" fill="#CFC5B7"/>
<path d="M92.0685 68.8633L85.265 67.72L31.7828 64.7134L22.1066 64.165C20.9051 69.2574 20.2654 74.2338 20.2654 78.7352C20.2654 101.696 36.9068 117.4 59.8678 117.4C82.8287 117.4 99.4701 101.696 99.4701 78.7352C99.4701 74.9868 99.0263 70.9088 98.1842 66.7089L92.0685 68.8633Z" stroke="#B7AC9A" stroke-width="2.22656" stroke-linecap="round" stroke-linejoin="round"/>
<path d="M57.5951 92.75C45.3138 93.8147 26.8181 94.1185 27.0223 85.5056C27.1303 52.6079 53.7702 46.5505 59.2819 47.175C76.9583 49.2443 91.5676 57.6307 92.062 79.9797C92.8692 89.2906 71.8768 91.5119 57.5951 92.75Z" fill="#FFD527"/>
<path d="M57.5951 92.75C45.3138 93.8147 26.8181 94.1185 27.0223 85.5056C27.1303 52.6079 53.7702 46.5505 59.2819 47.175C76.9583 49.2443 91.5676 57.6307 92.062 79.9797C92.8692 89.2906 71.8768 91.5119 57.5951 92.75Z" stroke="#FA9016" stroke-width="2.22656" stroke-linecap="round" stroke-linejoin="round"/>
<path d="M39.3024 59.84C30.5998 61.275 22.0457 61.2802 20.6519 62.9387C19.258 64.5971 26.4173 72.7399 33.1808 73.9061" fill="#FFD527"/>
<path d="M39.3024 59.84C30.5998 61.275 22.0457 61.2802 20.6519 62.9387C19.258 64.5971 26.4173 72.7399 33.1808 73.9061" stroke="#FA9016" stroke-width="2.22656" stroke-linecap="round" stroke-linejoin="round"/>
<path d="M24.2846 64.9392C25.1193 64.8568 27.6081 64.6159 30.618 64.4217" stroke="white" stroke-width="1.875" stroke-linecap="round" stroke-linejoin="round"/>
<path d="M76.0612 53.7987C89.0637 45.1618 96.7494 38.2555 99.6726 39.125C103.183 39.8406 95.4768 56.5092 86.4474 72.7347" fill="#FFD527"/>
<path d="M76.0612 53.7987C89.0637 45.1618 96.7494 38.2555 99.6726 39.125C103.183 39.8406 95.4768 56.5092 86.4474 72.7347" stroke="#FA9016" stroke-width="2.22656" stroke-linecap="round" stroke-linejoin="round"/>
<path d="M93.2074 9.44954C84.0664 2.46753 70.7482 3.18253 57.9084 7.8453L58.5658 16.5365L73.3859 21.0226L77.3439 30.8794L88.6026 29.3176L94.3359 41.5856L99.4704 39.2447L103.2 42.6418C104.834 29.3187 102.391 16.464 93.2074 9.44954Z" fill="#CEC5B6"/>
<path d="M93.2074 9.44954C84.0664 2.46753 70.7482 3.18253 57.9084 7.8453L58.5658 16.5365L73.3859 21.0226L77.3439 30.8794L88.6026 29.3176L94.3359 41.5856L99.4704 39.2447L103.2 42.6418C104.834 29.3187 102.391 16.464 93.2074 9.44954Z" stroke="#B7AC9A" stroke-width="2.22667" stroke-linecap="round" stroke-linejoin="round"/>
<g opacity="0.5">
<path d="M99.091 37.072L95.2778 38.7757L90.5762 28.0383C90.2387 27.3163 89.4511 26.895 88.6472 27.0066L78.725 28.4903L75.4468 19.9443C75.2434 19.4377 74.8129 19.0477 74.2789 18.8861L60.351 15.0163" stroke="#EAE5DC" stroke-width="2.34386" stroke-linecap="round" stroke-linejoin="round"/>
</g>
<path d="M88.8706 65.233C92.2633 61.3228 94.1835 56.4489 94.2257 50.916C94.3424 35.6433 80.2033 20.3757 62.6199 20.0884C45.0368 19.801 30.6678 34.6024 30.5512 49.8751C30.503 56.1828 32.9072 61.6824 37.1079 65.9325" fill="#FFD527"/>
<path d="M88.8706 65.233C92.2633 61.3228 94.1835 56.4489 94.2257 50.916C94.3424 35.6433 80.2033 20.3757 62.6199 20.0884C45.0368 19.801 30.6678 34.6024 30.5512 49.8751C30.503 56.1828 32.9072 61.6824 37.1079 65.9325" stroke="#FA9016" stroke-width="2.22631" stroke-linecap="round" stroke-linejoin="round"/>
<path d="M36.2543 45.5209C37.2753 41.3763 41.6263 29.1796 57.7406 26.6401" stroke="white" stroke-width="1.87478" stroke-linecap="round" stroke-linejoin="round"/>
<path d="M73.3988 54.1886C64.93 52.6401 67.3449 48.3725 64.6342 48.0802C61.2703 47.7175 63.0003 52.8991 54.5976 52.7747C50.359 52.6376 50.8978 56.1256 53.9652 57.0723C55.5152 62.325 59.4981 64.5201 63.5476 64.8856C67.5972 65.2511 71.2946 62.3697 73.5009 58.012C76.7888 58.3165 76.8966 54.688 73.3988 54.1886Z" fill="#FF5D1F"/>
<path d="M73.3988 54.1886C64.93 52.6401 67.3449 48.3725 64.6342 48.0802C61.2703 47.7175 63.0003 52.8991 54.5976 52.7747C50.359 52.6376 50.8977 56.1256 53.9652 57.0723C55.5152 62.325 59.4981 64.5201 63.5476 64.8856C67.5972 65.2511 71.2946 62.3697 73.5009 58.012C76.7888 58.3165 76.8966 54.688 73.3988 54.1886Z" stroke="#CF3502" stroke-width="1.78105" stroke-linecap="round" stroke-linejoin="round"/>
<path d="M54.4427 56.9629C59.6673 57.6742 65.5628 58.673 73.4357 57.9996" stroke="#7D0909" stroke-width="1.78105" stroke-linecap="round" stroke-linejoin="round"/>
<path d="M56.5845 57.3119C57.6471 58.7717 59.7715 61.4571 63.4654 61.7745C65.9817 61.9908 68.7462 60.9672 70.9365 58.2038C67.6879 58.5275 60.2277 57.8581 56.5845 57.3119Z" fill="#7D0909"/>
<path d="M56.5845 57.3119C57.6471 58.7717 59.7715 61.4571 63.4654 61.7745C65.9817 61.9908 68.7462 60.9672 70.9365 58.2038C67.6879 58.5275 60.2277 57.8581 56.5845 57.3119Z" stroke="#7D0909" stroke-width="1.78105" stroke-linecap="round" stroke-linejoin="round"/>
<g opacity="0.33">
<path d="M55.9114 54.5729C57.7828 54.5327 61.0434 53.9295 62.5411 51.6556" stroke="white" stroke-width="1.78105" stroke-linecap="round" stroke-linejoin="round"/>
</g>
<path d="M54.5027 45.1741C55.014 45.5141 53.3479 48.708 47.9033 48.1759C44.1102 47.7967 42.2003 44.7929 42.7788 44.5148C43.1989 44.3128 43.9495 46.1797 48.2444 46.5777C53.6961 47.0812 54.2701 45.0196 54.5027 45.1741Z" fill="black"/>
<path d="M54.5027 45.1741C55.014 45.5141 53.3479 48.708 47.9033 48.1759C44.1102 47.7967 42.2003 44.7929 42.7788 44.5148C43.1989 44.3128 43.9495 46.1797 48.2444 46.5777C53.6961 47.0812 54.2701 45.0196 54.5027 45.1741Z" stroke="black" stroke-width="1.76007" stroke-linecap="round" stroke-linejoin="round"/>
<path d="M47.9026 48.0244C47.7797 48.1365 47.0902 48.004 46.3631 47.7287C45.636 47.4534 45.1463 47.1389 45.2692 47.0269C45.3921 46.9148 46.0814 47.0472 46.8085 47.3226C47.5356 47.5979 48.0255 47.9123 47.9026 48.0244Z" fill="black"/>
<path d="M85.7014 48.6362C86.1833 48.9729 84.5885 52.1747 79.4399 51.6749C75.8531 51.3183 74.0632 48.3277 74.6121 48.0463C75.0108 47.842 75.7103 49.7033 79.7718 50.0757C84.9272 50.5468 85.4822 48.4831 85.7014 48.6362Z" fill="black"/>
<path d="M85.7014 48.6362C86.1833 48.9729 84.5885 52.1747 79.4399 51.6749C75.8531 51.3183 74.0632 48.3277 74.6121 48.0463C75.0108 47.842 75.7103 49.7033 79.7718 50.0757C84.9272 50.5468 85.4822 48.4831 85.7014 48.6362Z" stroke="black" stroke-width="1.7115" stroke-linecap="round" stroke-linejoin="round"/>
<path d="M79.4398 51.5239C79.3229 51.6366 78.6713 51.5084 77.9849 51.2375C77.2985 50.9666 76.8369 50.6553 76.9539 50.5425C77.0708 50.4298 77.7222 50.5581 78.4086 50.829C79.095 51.0998 79.5568 51.4112 79.4398 51.5239Z" fill="black"/>
<path d="M93.2074 9.44954C84.0664 2.46753 70.7482 3.18253 57.9084 7.8453L62.4691 13.5872L77.1824 14.462L80.617 25.8159L93.1905 23.2018L97.6246 36.5203L101.652 35.6021L103.2 42.6418C104.834 29.3187 102.391 16.464 93.2074 9.44954Z" fill="#E0D8CB"/>
<path d="M93.2074 9.44954C84.0664 2.46753 70.7482 3.18253 57.9084 7.8453L62.4691 13.5872L77.1824 14.462L80.617 25.8159L93.1905 23.2018L97.6246 36.5203L101.652 35.6021L103.2 42.6418C104.834 29.3187 102.391 16.464 93.2074 9.44954Z" stroke="#B7AC9A" stroke-width="2.22667" stroke-linecap="round" stroke-linejoin="round"/>
<path d="M101.442 33.9419L98.9439 34.07L95.1229 21.8792C94.7854 21.1572 93.998 20.7357 93.194 20.8473L82.1142 23.4919L78.9534 13.1518C78.75 12.6452 78.3197 12.2551 77.7857 12.0935L63.6577 11.6168L61.701 9.43867" stroke="white" stroke-width="2.34386" stroke-linecap="round" stroke-linejoin="round"/>
<g opacity="0.33">
<path d="M93.5355 8.92279C84.3522 1.90849 70.953 2.6619 58.0584 7.3831C60.0372 10.4737 62.3625 13.3254 62.3625 13.3254L77.0353 14.4633L80.6124 25.7011L92.8984 23.4966L97.9909 36.2043L101.528 35.8457C101.528 35.8457 102.09 39.2123 102.552 39.2542C104.288 29.5555 102.518 20.7461 97.7814 13.1528C96.5659 11.5809 95.156 10.1605 93.5355 8.92279Z" fill="white"/>
</g>
<g opacity="0.33">
<path d="M88.2175 7.23845C77.9984 2.86364 69.1688 4.21669 57.8498 7.56743C59.9125 10.2272 62.1978 13.6371 62.1978 13.6371L76.9647 14.5016L80.673 25.7717L93.3819 23.0147C93.3819 23.0147 93.8531 24.2915 94.4223 26.2017C94.9172 27.8621 95.4861 30.0012 95.8843 32.1959C98.508 25.0332 97.3877 14.2428 88.2175 7.23845Z" fill="white"/>
</g>
<path d="M93.2074 9.44954C84.0664 2.46753 70.7482 3.18253 57.9084 7.8453L62.4691 13.5872L77.1824 14.462L80.617 25.8159L93.1905 23.2018L97.6246 36.5203L101.652 35.6021L103.2 42.6418C104.834 29.3187 102.391 16.464 93.2074 9.44954Z" stroke="#B7AC9A" stroke-width="2.22667" stroke-linecap="round" stroke-linejoin="round"/>
<path d="M93.9435 71.9101L85.265 67.72L81.8435 83.6773L73.8158 70.3947L66.5132 76.6874L63.4138 74.1354L56.4188 79.1211L49.4051 65.5186L40.37 70.2959L36.4236 78.0846L32.243 79.5332L29.9078 67.9947L22.1066 64.165C20.9051 69.2574 20.2654 74.2338 20.2654 78.7352C20.2654 101.696 36.9068 117.4 59.8678 117.4C82.8287 117.4 99.4701 101.696 99.4701 78.7352C99.4701 74.9868 99.0263 70.9088 98.1842 66.7089L93.9435 71.9101Z" fill="#E0D8CB"/>
<g opacity="0.33">
<path d="M22.1268 64.6506C21.8026 66.0645 21.5221 67.4684 21.2869 68.8548C22.7039 87.8452 37.2075 100.597 56.8442 100.597C75.7357 100.597 89.878 88.7957 92.186 70.9906C89.5718 69.7 85.6769 67.8295 85.6769 67.8295L81.5842 83.0184L73.8578 70.5136L66.1018 76.9304L63.1585 73.9964L56.3177 78.5386L49.1501 65.2792L40.2261 70.2001L36.5311 78.0416L32.2225 79.0166L29.6639 67.6957C29.6639 67.6957 22.451 63.2368 22.1268 64.6506Z" fill="white"/>
</g>
<g opacity="0.33">
<path d="M49.5908 65.667L40.5948 70.1197C40.5948 70.1197 39.0373 72.3948 37.3865 77.2968C41.967 80.9539 47.9868 83.0295 54.8417 83.0295C63.5805 83.0295 70.9618 79.6565 75.7344 73.934C75.1931 72.7174 73.6078 70.6051 73.6078 70.6051L66.2325 76.8272L63.5157 74.0302L56.3655 79.2354L49.5908 65.667Z" fill="white"/>
</g>
<path d="M93.9435 71.9101L85.265 67.72L81.8435 83.6773L73.8158 70.3947L66.5132 76.6874L63.4138 74.1354L56.4188 79.1211L49.4051 65.5186L40.37 70.2959L36.4236 78.0846L32.243 79.5332L29.9078 67.9947L22.1066 64.165C20.9051 69.2574 20.2654 74.2338 20.2654 78.7352C20.2654 101.696 36.9068 117.4 59.8678 117.4C82.8287 117.4 99.4701 101.696 99.4701 78.7352C99.4701 74.9868 99.0263 70.9088 98.1842 66.7089L93.9435 71.9101Z" stroke="#B7AC9A" stroke-width="2.22656" stroke-linecap="round" stroke-linejoin="round"/>
<path d="M98.1829 66.7088L93.9422 71.91L85.2637 67.7198L81.8422 83.6772L73.8145 70.3946L66.5118 76.6873L63.4125 74.1352L56.4175 79.121L49.4038 65.5184L40.3687 70.2958L36.4223 78.0845L32.2417 79.5331L29.9065 67.9946L22.1053 64.1649" stroke="#B7AC9A" stroke-width="2.22656" stroke-linecap="round" stroke-linejoin="round"/>
<path d="M23.6815 67.4185L27.9429 69.5105L30.0136 79.7429C30.3057 81.1869 31.8037 82.0419 33.1956 81.5596L37.0736 80.2158C37.6698 80.0092 38.1626 79.5793 38.4478 79.0164L42.0363 71.9333L48.4573 68.5384L54.3303 79.9291C55.0096 81.2465 56.6987 81.6558 57.9057 80.7954L63.316 76.9392L64.9633 78.2954C65.8777 79.0485 67.2014 79.0338 68.0987 78.2605L73.273 73.8016L79.6677 84.3822C80.8077 86.2685 83.6677 85.7887 84.13 83.6336L86.8484 70.9569L92.8282 73.8443C93.8427 74.3342 95.0608 74.0636 95.7727 73.1906L96.7906 71.9417" stroke="white" stroke-width="1.78125" stroke-linecap="round" stroke-linejoin="round"/>
</g>
</g>
</g>
<defs>
<clipPath id="clip0_1_122">
<rect width="120" height="120" fill="white"/>
</clipPath>
</defs>
</svg>
